img/menu_footer_short.svg

<svg xmlns="http://www.w3.org/2000/svg" fill="none" viewBox="0 0 40 33"><path fill="#363636" d="M0 0h40v5H0V0zM0 14h40v5H0v-5zM0 28h40v5H0v-5z"/></svg>

<svg width="40" height="33" viewBox="0 0 40 33" fill="none" xmlns="http://www.w3.org/2000/svg">
<path d="M0 0H40V5H0V0Z" fill="#363636"/>
<path d="M0 14H40V19H0V14Z" fill="#363636"/>
<path d="M0 28H40V33H0V28Z" fill="#363636"/>
</svg>
